!!!COM: Marotta, Erasmo
!!!CDT:
!!!PTL: Aminta musicale. Il primo libro de madrigali a cinque voci
!!!PPP: Venice
!!!PPR: Angelo Gardano
!!!PDT: 1600
!!!PUB-format:
!!!RISM: M 714
!!!OTL: Orsù scuoprimi il tutto. Odi. Dì tosto
!!!act: II
!!!scene: 3
!!!verse: 1067
!!!AGN:
!!!SCT: Tam2031067b
!!!SCA: Tam2031067b
!!!original-voices: 8
!!!extant-voices: 5
!!!complete: N
!!!final: C
**kern	**text	**kern	**text	**kern	**text	**kern	**text	**kern	**text
*part5	*part5	*part2	*part2	*part4	*part4	*part3	*part3	*part1	*part1
*staff5	*staff5	*staff2	*staff2	*staff4	*staff4	*staff3	*staff3	*staff1	*staff1
*I"Basso II	*	*I"Tenore I	*	*I"Alto II	*	*I"Canto II	*	*I"Canto I	*
*I'B	*	*I'T	*	*I'A	*	*I'C	*	*I'C	*
*oclefC4	*	*oclefC3	*	*oclefC2	*	*oclefG2	*	*oclefG2	*
*clefGv2	*	*clefGv2	*	*clefG2	*	*clefG2	*	*clefG2	*
*k[]	*	*k[]	*	*k[]	*	*k[]	*	*k[]	*
*omet(C)	*	*omet(C)	*	*omet(C)	*	*omet(C)	*	*omet(C)	*
*M4/2	*	*M4/2	*	*M4/2	*	*M4/2	*	*M4/2	*
=1	=1	=1	=1	=1	=1	=1	=1	=1	=1
!!LO:TX:a:t=[Seconda parte]
1r	.	0r	.	1r	.	2r	.	0r	.
.	.	.	.	.	.	2gg	Hor-	.	.
2r	.	.	.	2r	.	2ee	-sù,	.	.
2c	Hor-	.	.	2g	Hor-	4r	.	.	.
.	.	.	.	.	.	4ee	<Hor-	.	.
=2	=2	=2	=2	=2	=2	=2	=2	=2	=2
2.c	-sù,	0r	.	2.g	-sù,	2.cc	-sù,>	0r	.
4.B-X	scuo-	.	.	4.b-X	scuo-	4.dd	scuo-	.	.
8B-X	-pri-	.	.	8b-X	-pri-	8dd	-pri-	.	.
4G	-mi il	.	.	4b-X	-mi il	4dd	-mi il	.	.
[2F	tut-	.	.	[2cc	tut-	[2ff	tut-	.	.
=3	=3	=3	=3	=3	=3	=3	=3	=3	=3
2F]	.	2r	.	2cc]	.	2ff]	.	2r	.
2C	-to.	1g	O-	2cc	-to.	2ee	-to.	1ee	O-
2r	.	.	.	2r	.	2r	.	.	.
4r	.	2g	-di,	4r	.	4r	.	2ee	-di,
4c	Dì	.	.	4g	Dì	4cc	Dì	.	.
=4	=4	=4	=4	=4	=4	=4	=4	=4	=4
2G	to-	2r	.	2g	to-	2b	to-	2r	.
2C	-sto,	1g	<O-	2g	-sto,	2cc	-sto,	1ee	<O-
2r	.	.	.	2r	.	2r	.	.	.
4r	.	2g	-di.>	4r	.	4r	.	2ee	-di.>
4c	<Dì	.	.	4g	<Dì	4cc	<Dì	.	.
=5	=5	=5	=5	=5	=5	=5	=5	=5	=5
2G	to-	0r	.	2g	to-	2b	to-	0r	.
4C	-sto,	.	.	4g	-sto,	4cc	-sto,	.	.
4D	Dì	.	.	4f	Dì	4ff	Dì	.	.
2A	to-	.	.	2a	to-	2ee	to-	.	.
2D	-sto.>	.	.	2a	-sto.>	2dd	-sto.>	.	.
=6	=6	=6	=6	=6	=6	=6	=6	=6	=6
0r	.	2e	Sil-	0r	.	0r	.	2cc#X	Sil-
.	.	4e	-via	.	.	.	.	4cc#X	-via
.	.	4e	t'at-	.	.	.	.	4cc#X	t'at-
.	.	4e	-ten-	.	.	.	.	4cc#X	-ten-
.	.	4f	-de a un	.	.	.	.	4dd	-de a un
.	.	[2e	fon-	.	.	.	.	[2cc#X	fon-
=7	=7	=7	=7	=7	=7	=7	=7	=7	=7
0r	.	4e]	.	0r	.	0r	.	4cc#X]	.
.	.	4f	-te, i-	.	.	.	.	4dd	-te, i-
.	.	4e	-gnu-	.	.	.	.	4ee	-gnu-
.	.	4f	-da e	.	.	.	.	4dd	-da e
.	.	1g	so-	.	.	.	.	1dd	so-
=8	=8	=8	=8	=8	=8	=8	=8	=8	=8
0r	.	2e	-la.	0r	.	0r	.	2cc#X	-la.
.	.	4.a	Ar-	.	.	.	.	4r	.
.	.	.	.	.	.	.	.	4.ff	Ar-
.	.	8a	-di-	.	.	.	.	.	.
.	.	2.a	-rai	.	.	.	.	.	.
.	.	.	.	.	.	.	.	8ff	-di-
.	.	.	.	.	.	.	.	2ff	-rai
.	.	[4a	tu	.	.	.	.	[4ee	tu
=9	=9	=9	=9	=9	=9	=9	=9	=9	=9
1r	.	4a]	.	0r	.	0r	.	4ee]	.
.	.	4g	d'an-	.	.	.	.	4ee	d'an-
.	.	2g	-dar-	.	.	.	.	2dd	-dar-
2r	.	1g	-vi?	.	.	.	.	1cc	-vi?
[2c	Oh,	.	.	.	.	.	.	.	.
=10	=10	=10	=10	=10	=10	=10	=10	=10	=10
2c]	.	0r	.	1.cc	Oh,	1.ee	Oh,	0r	.
4B	che	.	.	.	.	.	.	.	.
4A	mi	.	.	.	.	.	.	.	.
[1E	di-	.	.	.	.	.	.	.	.
.	.	.	.	4b	che	4dd	che	.	.
.	.	.	.	4a	mi	4cc	mi	.	.
=11	=11	=11	=11	=11	=11	=11	=11	=11	=11
1E]	.	0r	.	1g#X	di-	1b	di-	0r	.
1E	-ci?	.	.	1g#X	-ci?	1b	-ci?	.	.
=12	=12	=12	=12	=12	=12	=12	=12	=12	=12
2A	Sil-	0r	.	2a	Sil-	2cc#X	Sil-	0r	.
4A	-via	.	.	4a	-via	4cc#X	-via	.	.
4A	m'at-	.	.	4a	m'at-	4cc#X	m'at-	.	.
4A	-ten-	.	.	4a	-ten-	4cc#X	-ten-	.	.
4D	-de a un	.	.	4a	-de a un	4dd	-de a un	.	.
[2A	fon-	.	.	[2a	fon-	[2cc#X	fon-	.	.
=13	=13	=13	=13	=13	=13	=13	=13	=13	=13
4A]	.	0r	.	4a]	.	4cc#X]	.	0r	.
4d	-te, i-	.	.	4a	-te, i-	4dd	-te, i-	.	.
4c#X	-gnu-	.	.	4a	-gnu-	4ee	-gnu-	.	.
4d	-da e	.	.	4a	-da e	4dd	-da e	.	.
1G	so-	.	.	1b-X	so-	1dd	so-	.	.
=14	=14	=14	=14	=14	=14	=14	=14	=14	=14
1A	-la?	1r	.	1a	-la?	1cc#X	-la?	1r	.
1r	.	1g	So-	1r	.	1r	.	1dd	So-
=15	=15	=15	=15	=15	=15	=15	=15	=15	=15
0r	.	2e	-la,	0r	.	0r	.	2cc#X	-la,
.	.	4f	se	.	.	.	.	4r	.
.	.	2g	non	.	.	.	.	4aa	se
.	.	.	.	.	.	.	.	4aa	non
.	.	4e	quan-	.	.	.	.	4gg	quan-
.	.	[2f	-to	.	.	.	.	4ff	-to
.	.	.	.	.	.	.	.	4ee	v'è
=16	=16	=16	=16	=16	=16	=16	=16	=16	=16
0r	.	2f]	.	0r	.	0r	.	2.dd	Daf-
.	.	2g	v'è	.	.	.	.	.	.
.	.	.	.	.	.	.	.	4cc	-ne
.	.	4g	Daf-	.	.	.	.	4dd	ch'è
.	.	4g	-ne	.	.	.	.	4ee	per
.	.	4a	ch'è	.	.	.	.	[2ff	no-
.	.	4f	per	.	.	.	.	.	.
=17	=17	=17	=17	=17	=17	=17	=17	=17	=17
1r	.	1g	no-	1r	.	1r	.	4ff]	.
.	.	.	.	.	.	.	.	8eeL	.
.	.	.	.	.	.	.	.	8ddJ	.
.	.	.	.	.	.	.	.	2ee	.
2r	.	1f	-i.	2r	.	2r	.	1ff	-i.
2F	I-	.	.	2a	I-	2cc	I-	.	.
=18	=18	=18	=18	=18	=18	=18	=18	=18	=18
2c	-gnu-	1r	.	2cc	-gnu-	2ee	-gnu-	1r	.
4B	-da el-	.	.	4g	-da el-	4dd	-da el-	.	.
8B	-la	.	.	8g	-la	8dd	-la	.	.
8B	m'a-	.	.	8g	m'a-	8dd	m'a-	.	.
2c	-spet-	2r	.	2g	-spet-	2cc	-spet-	2r	.
2G	-ta?	4r	.	2g	-ta?	2b	-ta?	4r	.
.	.	4d	I-	.	.	.	.	4b	I-
=19	=19	=19	=19	=19	=19	=19	=19	=19	=19
0r	.	2e	-gnu-	0r	.	1r	.	2cc	-gnu-
.	.	2d	-da;	.	.	.	.	2b	-da;
.	.	1e	ma.	.	.	1r	.	1b	ma.
=20	=20	=20	=20	=20	=20	=20	=20	=20	=20
2e	Ohi-	0r	.	2g#X	Ohi-	2b	Ohi-	0r	.
4c	-mè,	.	.	4a	-mè,	4cc	-mè,	.	.
4A	che	.	.	4a	che	4cc	che	.	.
2E	"ma"?	.	.	1g#X	"ma"?	2b	"ma"?	.	.
4r	.	.	.	.	.	4r	.	.	.
4E	Tu	.	.	.	.	4b	Tu	.	.
=21	=21	=21	=21	=21	=21	=21	=21	=21	=21
1E	ta-	0r	.	4r	.	1cc	ta-	0r	.
.	.	.	.	4g#X	Tu	.	.	.	.
.	.	.	.	1a	ta-	.	.	.	.
1E	-ci?	.	.	.	.	1b	-ci?	.	.
.	.	.	.	2g#X	-ci?	.	.	.	.
=22	=22	=22	=22	=22	=22	=22	=22	=22	=22
2r	.	0r	.	2r	.	2r	.	0r	.
1A	Tu	.	.	2.a	Tu	1cc	Tu	.	.
.	.	.	.	4g	m'uc-	.	.	.	.
2G	m'uc-	.	.	[2e	-ci-	2b	m'uc-	.	.
=23	=23	=23	=23	=23	=23	=23	=23	=23	=23
1F	-ci-	1r	.	2e]	.	1a	-ci-	1r	.
.	.	.	.	2d	.	.	.	.	.
1E	-di.	2r	.	1e	-di.	1g#X	-di.	2r	.
.	.	4r	.	.	.	.	.	4r	.
.	.	4e	Ma	.	.	.	.	4ee	Ma
=24	=24	=24	=24	=24	=24	=24	=24	=24	=24
0r	.	4g	non	0r	.	1r	.	4ee	non
.	.	4g	sa	.	.	.	.	4dd	sa
.	.	2e	già	.	.	.	.	2cc	già
.	.	4d	che	.	.	1r	.	4b	che
.	.	2c	tu	.	.	.	.	2a	tu
.	.	4c	v'ab-	.	.	.	.	4cc	v'ab-
=25	=25	=25	=25	=25	=25	=25	=25	=25	=25
1r	.	4f	-bi	1r	.	1r	.	4cc	-bi
.	.	4g	d'an-	.	.	.	.	4ee	d'an-
.	.	2g	-da-	.	.	.	.	2dd	-da-
2r	.	1g	-re.	2r	.	2r	.	1cc	-re.
[2c	Du-	.	.	[2g	Du-	[2cc	Du-	.	.
=26	=26	=26	=26	=26	=26	=26	=26	=26	=26
2c]	.	0r	.	2g]	.	2cc]	.	1r	.
4B	-ra	.	.	4g	-ra	4dd	-ra	.	.
4B	con-	.	.	4g	con-	4dd	con-	.	.
2B	-clu-	.	.	2g	-clu-	2dd	-clu-	2r	.
2c	-si-	.	.	2g	-si-	2ee	-si-	[2gg	Du-
=27	=27	=27	=27	=27	=27	=27	=27	=27	=27
1G	-on,	2r	.	1g	-on,	1dd	-on,	2gg]	.
.	.	4d	Du-	.	.	.	.	4dd	-ra
.	.	8d	-ra	.	.	.	.	4dd	con-
.	.	8d	con-	.	.	.	.	.	.
2r	.	2d	-clu-	2r	.	2r	.	2dd	-clu-
[2c	<Du-	2e	-si-	[2g	<Du-	[2gg	<Du-	2ee	-si-
=28	=28	=28	=28	=28	=28	=28	=28	=28	=28
2c]	.	1d	-on,	2g]	.	2gg]	.	1dd	-on,
4B	-ra	.	.	4g	-ra	4dd	-ra	.	.
4B	con-	.	.	4g	con-	4dd	con-	.	.
2B	-clu-	1r	.	2g	-clu-	2dd	-clu-	2r	.
2c	-si-	.	.	2g	-si-	2ee	-si-	[2gg	<Du-
=29	=29	=29	=29	=29	=29	=29	=29	=29	=29
1G	-on,>	2r	.	1g	-on,>	1dd	-on,>	2gg]	.
.	.	4d	<Du-	.	.	.	.	4dd	-ra
.	.	8d	-ra	.	.	.	.	4dd	con-
.	.	8d	con-	.	.	.	.	.	.
1r	.	2d	-clu-	1r	.	1r	.	2dd	-clu-
.	.	2e	-si-	.	.	.	.	2cc	-si-
=30	=30	=30	=30	=30	=30	=30	=30	=30	=30
2r	.	1d	-on,>	2r	.	2r	.	1b	-on,>
2G	che	.	.	2b	che	2dd	che	.	.
4D	tut-	4r	.	4a	tut-	4dd	tut-	4r	.
4D	-te at-	4f	che	4a	-te at-	4dd	-te at-	4ff	che
2F	-to-	4c	tut-	2a	-to-	2cc	-to-	4ff	tut-
.	.	4c	-te at-	.	.	.	.	4ff	-te at-
=31	=31	=31	=31	=31	=31	=31	=31	=31	=31
2C	-sca	2c	-to-	2e	-sca	2cc	-sca	2ee	-to-
1G	Le	2d	-sca	1g	Le	1b	Le	2dd	-sca
.	.	[1d	Le	.	.	.	.	[1gg	Le
2G	dol-	.	.	2g	dol-	2dd	dol-	.	.
=32	=32	=32	=32	=32	=32	=32	=32	=32	=32
0G	-cez-	2d]	.	0g	-cez-	0dd	-cez-	2gg]	.
.	.	2d	dol-	.	.	.	.	2gg	dol-
.	.	2d	-cez-	.	.	.	.	1gg	-cez-
.	.	[2B	-ze	.	.	.	.	.	.
=33	=33	=33	=33	=33	=33	=33	=33	=33	=33
1E	-ze	2B]	.	1g	-ze	1ee	-ze	1.gg	-ze
.	.	1e	.	.	.	.	.	.	.
1C	pas-	.	.	1g	pas-	2ee	pas-	.	.
.	.	2c	pas-	.	.	[2gg	-sa-	2ee	pas-
=34	=34	=34	=34	=34	=34	=34	=34	=34	=34
0G	-sa-	0d	-sa-	0g	-sa-	2gg]	.	0dd	-sa-
.	.	.	.	.	.	2dd	.	.	.
.	.	.	.	.	.	1gg	.	.	.
=35	=35	=35	=35	=35	=35	=35	=35	=35	=35
2C	-te,	0e	-te,	2g	-te,	2ee	-te,	1cc	-te,
1c	Le	.	.	1g	Le	1ee	Le	.	.
.	.	.	.	.	.	.	.	2r	.
2A	dol-	.	.	2a	dol-	2ee	dol-	[2cc	Le
=36	=36	=36	=36	=36	=36	=36	=36	=36	=36
1F	-cez-	2r	.	1a	-cez-	1ff	-cez-	2cc]	.
.	.	2c	Le	.	.	.	.	2cc	dol-
2F	-ze	2A	dol-	2a	-ze	2cc	-ze	1ff	-cez-
2F	pas-	[2F	-cez-	2cc	pas-	2cc	pas-	.	.
=37	=37	=37	=37	=37	=37	=37	=37	=37	=37
0F	-sa-	4F]	.	2.a	-sa-	0cc	-sa-	2ff	-ze
.	.	4F	-ze	.	.	.	.	.	.
.	.	2A	pas-	.	.	.	.	2cc	pas-
.	.	.	.	4g	.	.	.	.	.
.	.	1c	-sa-	4f	.	.	.	1ff	-sa-
.	.	.	.	8eL	.	.	.	.	.
.	.	.	.	8dJ	.	.	.	.	.
.	.	.	.	4c	.	.	.	.	.
.	.	.	.	4d	.	.	.	.	.
=38	=38	=38	=38	=38	=38	=38	=38	=38	=38
0Cl	-te.	0cl	-te.	0el	-te.	0ccl	-te.	0eel	-te.
==	==	==	==	==	==	==	==	==	==
*-	*-	*-	*-	*-	*-	*-	*-	*-	*-
!!!system-decoration: [*]
!!!RDF**kern: i = editorial accidental
!!!RDF**kern: l = terminal long
!!!ENC: Emiliano Ricciardi
!!!END: 2018/05/25
!!!EED: Coluzzi, Seth
!!!EEV: 2021/04/24
!!!YEC: Copyright 2018 Emiliano Ricciardi, All Rights Reserved
!!!ONB: Translated from MusicXML on 2018/07/13 and edited by Craig Stuart Sapp
!!@@BEGIN:	VERSEDATA
!!@CATALOGNUM:	Tam2031067
!!@LAST_MODIFIED: 2020/07/12
!!@ACT:      II
!!@SCENE:    3
!!@VERSE:    1067
!!@TITLE:     Orsù cuoprimi il tutto. Odi. Di' tosto
!!@MANUSRC:	A-Am, A-Au, A-Br, A-CM, A-F, A-Ub
!!@PRINTSRC:	A-1580D, A-1580M, A-1581B, A-1581B<sub>bis</sub>, A-1581M, A-1581M<sub>bis</sub>, A-1581O, A-1581V, A-1582B, A-1583M, A-1583V, A-1584A, A-1585C, A-1585V, A-1585V<sub>bis</sub>, A-1588B, A-1589M, A-1589V, A-1590Mb, A-1590Mv, A-1591M, A-1591W, A-1592B, A-1596B, A-1596M, A-1599Bf, A-1599Bp, A-1600R, A-1601Bf, A-1601Bp, A-1602B, A-1603Bf, A-1603Bv, A-1603Z, A-1605R, A-1606Z, A-1608D, A-1608DP, A-1609Bf, A-1609Bv, A-1609Z, A-1611D, A-1614GT, A-1617D, A-1618B, A-1619D, A-1619I, A-1620V, A-1622D, A-1623A, A-1624M, A-1624S, A-1624T, A-1625U, A-1628U, A-1632D, A-1634R
!!@@BEGIN:	VERSES
!!@ABOUTIT:	 AMINTA
!!@ABOUTEN:	
!!@EDITOR:	Solerti, Angelo
!!@EDITION_TITLE: Opere minori in versi di Torquato Tasso. Edizione critica sugli autografi e sulle antiche stampe.
!!@EDITION_LOC:	Bologna
!!@EDITION_PUB:	Zanichelli
!!@EDITION_DATE:  1895
!!@EDITION_VOL:	3
!!@EDITION_PAGE:
!!@TRANSLATOR:	Emiliano Ricciardi and Amyrose McCue Gill
!!@VERSE:	
!!	AMINTA: Horsù, scoprimi il tutto.
!!	TIRSI: Odi.
!!	AMINTA: Di' tosto.
!!	TIRSI: Silvia attende a una fonte, ignuda e sola.
!!	Ardirai tu d'andarvi?
!!	AMINTA: O, che mi dici?
!!	Silvia m'attende ignuda e sola?
!!	TIRSI: Sola,
!!	Se non quanto v'è Dafne, ch'è per noi.
!!	AMINTA: Ignuda ella m'aspetta?
!!	TIRSI: Ignuda, ma...
!!	AMINTA: Ohimè, che ma? Tu taci; tu m'uccidi.
!!	TIRSI: Ma non sa già che tu v'habbi d'andare.
!!@TVERSE:
!!	AMINTA: Come on now, reveal all to me.
!!	THYRSIS: Listen.
!!	AMINTA: Tell me at once.
!!	THYRSIS: Silvia waits at a spring, naked and alone.
!!	Will you dare to go there?
!!	AMINTA: Oh, what are you saying to me?
!!	Silvia awaits me naked and alone?
!!	THYRSIS: Alone,
!!	Except that Daphne is there, who is for us.
!!	AMINTA: Naked she waits for me?
!!	THYRSIS: Naked, but…
!!	AMINTA: Oh dear, what “but”? You are silent; you are killing me!
!!	THYRSIS: But she does not already know that you plan to go there.
!!@@END:		VERSES
!!@NEW_CRIT_ED:   Torquato Tasso, <i>Aminta. "Princeps."</i>, ed. Matteo Navone, vol. 9 of Commissione Nazionale per l'Edizione delle opere del Tasso. Studi e Testi (Alessandria: Edizioni dell'Orso, 2014).
!!@ATTRIBUTION_ABOUT:	
!!@DATING:	1573
!!@DEDICATEE:	
!!@COMMENTARY:
!!@@END:		VERSEDATA
!!@@BEGIN: SETTING
!!@CATALOGNUM:	Tam2031067b
!!@ACT:		II
!!@SCENE:		3
!!@VERSE:		1067
!!@TITLE:	Orsù scuoprimi il tutto. Odi. Dì tosto
!!@SETTINGTITLE: Horsù scuoprimi il tutto. Odi. Dì toso
!!@COMPOSER:	Marotta, Erasmo
!!@PRINCEPSTITLE:	Aminta musicale. Il primo libro de madrigali a cinque voci
!!@PRINCEPSLOC:	Venice
!!@NORMLOC:	Venice
!!@NORMPUB:	Angelo Gardano
!!@NORMPUBSHORT:	Gardano
!!@PRINCEPSPUB:	Angelo Gardano
!!@PRINCEPSYEAR:	1600
!!@PRINCEPSRISM:	M 714
!!@OVOICES:	8
!!@EXTANTVOICES:	5
!!@OMENSURATION:	C
!!@OCLEFS:	G2,G2,C2,C3,C4
!!@OTIME:		
!!@OKEYSIG:	-
!!@FINAL:		C
!!@TIMPEDITOR:	Coluzzi, Seth
!!@PARTS:		2 of 2 (1 at setting Tam2031045b)
!!@REPRINTS:	
!!@@END: SETTING
